X:525
T:Reel 525
M:4/4
K:Emin
L:1/8
BA|GE^DE B,EDE|FD (3DDD FDAD|GE^DE B,EDE|AFdF GABA|GE^DE B,EDE|FD (3DDD FDAD|GFEC B,A,B,A|GBAF GEE|d|e^def gefd|dcdf ecBA|Beed efed|AcBA GEEA|Beed efed|cABc d2cd|ecdB cABA|GAFG E2|
